docs/yandex.svg

<?xml version="1.0" encoding="UTF-8" standalone="no"?>
<svg width="105px" height="40px" viewBox="0 0 105 40" version="1.1" xmlns="http://www.w3.org/2000/svg" xmlns:xlink="http://www.w3.org/1999/xlink">
    <g id="Page-1" stroke="none" stroke-width="1" fill="none" fill-rule="evenodd">
        <g id="Yandex">
            <g id="yandex_eng_logo" transform="translate(22.000000, 13.000000)">
                <path d="M25.9379093,8.77964118 C24.5891419,8.77964118 23.1828837,9.75037647 23.1828837,9.75037647 L23.1828837,9.12626471 C23.1828837,8.98961765 23.127314,8.93482353 22.9887326,8.93482353 L21.2671674,8.93482353 C21.1284488,8.93482353 21.0451628,9.01708235 21.0451628,9.12626471 L21.0451628,22.4308176 C21.0451628,22.5680059 21.1007326,22.6502647 21.2395884,22.6502647 L22.9887326,22.6502647 C23.0994605,22.6502647 23.1828837,22.5680059 23.1828837,22.4308176 L23.1828837,11.0425706 C23.1828837,11.0425706 23.9947512,10.5353529 24.9807372,10.5353529 C25.9195233,10.5353529 26.6605907,10.9946765 26.6605907,11.937 L26.6605907,22.4308176 C26.6605907,22.5680059 26.7438767,22.6502647 26.8827326,22.6502647 L28.603886,22.6502647 C28.7427419,22.6502647 28.7981744,22.5406765 28.7981744,22.4308176 L28.7981744,11.3406235 C28.7981744,9.67028235 27.7567558,8.77964118 25.9379093,8.77964118" id="Fill-1" fill="#000000"></path>
                <path d="M33.1975163,15.8821765 C33.1975163,13.0898412 34.0263977,10.3248353 35.7187372,10.3248353 C36.2919977,10.3248353 36.8427558,10.5108647 37.3848698,10.9355529 L37.3848698,20.7729235 C36.960893,21.0003529 36.4274233,21.2101941 35.851007,21.2101941 C34.0107558,21.2101941 33.1975163,19.0578 33.1975163,15.8821765 L33.1975163,15.8821765 Z M39.3284395,2.10598824 L37.6070116,2.10598824 C37.4681558,2.10598824 37.3848698,2.18811176 37.3848698,2.2977 L37.3848698,9.00964118 C36.7240698,8.75961765 36.122407,8.62757059 35.6361372,8.62757059 C32.8403605,8.62757059 30.9210767,11.2628294 30.9210767,16.3304059 C30.9210767,20.6717235 32.7880837,23 35.2246465,23 C36.2516581,23 37.0994744,22.4197235 37.7200721,21.8754353 L38.0960256,22.5034706 C38.1594163,22.6121118 38.2112814,22.6494529 38.3384744,22.6494529 L39.3284395,22.6502647 C39.4394419,22.6502647 39.5228651,22.5680059 39.5228651,22.4308176 L39.5228651,2.2977 C39.5228651,2.16064706 39.4671581,2.10598824 39.3284395,2.10598824 L39.3284395,2.10598824 Z" id="Fill-2" fill="#000000"></path>
                <path d="M45.784686,14.5553471 C45.1506419,14.5553471 43.9967116,14.7098529 43.9967116,14.7098529 C43.9967116,14.7098529 44.0120791,14.2563471 44.0672372,13.8212412 C44.3154488,11.5100118 44.8744395,10.3409353 45.8395698,10.3409353 C46.6787419,10.3409353 47.2535116,11.5370706 47.3916814,13.6310176 C47.418986,14.0659882 47.418986,14.5553471 47.418986,14.5553471 L45.784686,14.5553471 L45.784686,14.5553471 Z M45.9225814,8.65503529 C43.0558674,8.65503529 41.6408279,12.3528941 41.6408279,16.3770824 C41.6408279,20.5891941 43.6589023,22.9500765 46.2535302,22.9500765 C47.3941512,22.9500765 48.5294209,22.5073941 49.2739186,22.0994824 C49.3879395,22.0369765 49.4085209,21.9487647 49.3812163,21.8399882 L49.1634651,20.9500235 C49.1362977,20.8412471 49.0808651,20.7869941 48.9428326,20.7869941 C48.882186,20.7869941 47.9417535,21.0582588 47.0268419,21.0582588 C44.9033907,21.0582588 43.9294791,19.1970176 43.9294791,16.7250588 L43.9294791,16.1240824 C43.9294791,16.1240824 44.9850302,16.2681706 45.6190744,16.2681706 L49.6250372,16.2681706 L49.6250372,15.1264235 C49.6250372,10.9120118 48.1283581,8.65503529 45.9225814,8.65503529 L45.9225814,8.65503529 Z" id="Fill-3" fill="#000000"></path>
                <g id="Group-8">
                    <mask id="mask-2" fill="white">
                        <use xlink:href="#path-1"></use>
                    </mask>
                    <g id="Clip-5"></g>
                    <path d="M16.2431116,20.4944882 C15.7499814,20.9640941 15.1592953,21.2101941 14.6277465,21.2101941 C14.0963349,21.2101941 13.6856674,20.9681529 13.3562279,20.5197882 C12.9554395,19.9742824 12.768286,19.1343765 12.768286,18.2036882 C12.768286,16.7316882 13.3194558,15.2212647 14.487793,15.2212647 C15.0658558,15.2212647 15.7009977,15.4068882 16.2431116,15.8319824 L16.2431116,20.4944882 L16.2431116,20.4944882 Z M17.7757395,10.3832824 C17.1390884,9.14655882 16.0051907,8.60605882 14.7065047,8.60605882 C13.8721349,8.60605882 12.5700186,8.92061765 11.7002488,9.30607059 C11.5301093,9.38142941 11.4224,9.44772353 11.4224,9.57990588 C11.4224,9.65837647 11.4620535,9.74848235 11.505686,9.82641176 L12.0915698,11.0634059 C12.1522163,11.2030294 12.2486744,11.2349588 12.3286674,11.2349588 C12.4153837,11.2349588 12.4857721,11.1945059 12.5635698,11.1452588 C13.4117977,10.6107118 14.0333558,10.3168529 14.5252512,10.3168529 C15.1758977,10.3168529 15.6178488,10.7426235 15.8903465,11.3827 C16.1441837,11.9792118 16.2425628,12.8034235 16.2425628,13.7557588 C16.2425628,13.8772529 16.2431116,14.0356824 16.2431116,14.0356824 C15.7085442,13.7058353 14.7825186,13.524 14.3202605,13.524 C11.8330674,13.524 10.4917093,15.8540353 10.4917093,18.3458824 C10.4917093,21.0306588 12.0593256,23 13.9432093,23 C14.9924488,23 15.9422116,22.3928 16.5781767,21.6273059 C16.5781767,21.6273059 16.9168093,22.4233765 16.9611279,22.5188941 C17.0057209,22.6142765 17.0526465,22.6494529 17.1799767,22.6494529 L18.1866814,22.6502647 C18.2974093,22.6502647 18.3808326,22.5680059 18.3808326,22.4308176 L18.3808326,14.7129647 C18.3808326,12.8166824 18.2836884,11.3698471 17.7757395,10.3832824 L17.7757395,10.3832824 Z" id="Fill-4" fill="#000000" mask="url(#mask-2)"></path>
                    <path d="M58.7162512,8.93306471 L57.1818395,8.93306471 C57.0104651,8.93306471 56.9232,9.02154706 56.8788814,9.13627647 C56.7816,9.38778824 56.133286,11.0717941 55.8672372,11.7695059 C55.677614,12.2677941 55.1671953,13.6951471 55.1671953,13.6951471 L55.1077837,13.6947412 C55.1058628,13.6896 54.7319674,12.6566294 54.5295837,12.1391294 C54.3657558,11.7197176 53.5109419,9.49954118 53.4028209,9.22584118 C53.3450558,9.07877647 53.2805674,8.93306471 53.0607581,8.93306471 L51.3809047,8.93306471 C51.1962209,8.93306471 51.0918047,9.13262353 51.1513535,9.25655294 C51.2111767,9.38088824 53.8875814,15.3921412 53.8875814,15.3921412 C53.8875814,15.3921412 51.0133209,22.1232941 50.9293488,22.2742824 C50.8453767,22.4255412 50.9508907,22.6493176 51.1554698,22.6493176 L52.6277256,22.6493176 C52.8782698,22.6493176 52.9770605,22.5198412 53.0522512,22.3113529 C53.2638279,21.7267471 53.5788605,20.9140353 54.0249279,19.6578294 C54.3204767,18.8253647 54.7878116,17.3643235 54.7878116,17.3643235 L54.8392651,17.3643235 C54.8392651,17.3643235 55.351193,18.8533706 55.5416395,19.3402941 C56.0225581,20.5713353 56.6378047,22.1795765 56.7031163,22.3493706 C56.7710349,22.5270118 56.8661209,22.6493176 57.0383186,22.6493176 L58.7077442,22.6493176 C58.8729442,22.6493176 58.9493698,22.4634235 58.8717093,22.3014765 C58.6857907,21.9156176 57.1004744,18.1171 55.9996442,15.6198412 C55.9996442,15.6198412 58.8567535,9.40280588 58.9124605,9.24911176 C58.9681674,9.09528235 58.9517023,8.93306471 58.7162512,8.93306471" id="Fill-6" fill="#000000" mask="url(#mask-2)"></path>
                    <path d="M12.2305628,0.104041176 L10.2952256,0.104041176 C10.1238512,0.104041176 10.0168279,0.186976471 9.99213023,0.307252941 C9.96756977,0.427935294 7.08987907,9.07972353 6.88077209,9.80043529 C6.73244884,10.3113059 6.24892326,12.1124765 6.1329814,12.5450118 L5.13217674,9.85076471 C4.88890465,9.10921765 2.55813023,2.68842941 2.4898,2.43204706 C2.45206744,2.29107059 2.38634419,2.11572941 2.1358,2.11572941 L0.246427907,2.11572941 C0.0616069767,2.11572941 -0.0428093023,2.31555882 0.0167395349,2.43948824 C0.0643511628,2.53865882 3.47715814,11.4912059 4.85583721,14.9111706 L4.85583721,22.4308176 C4.85583721,22.5680059 4.91154419,22.6502647 5.05026279,22.6502647 L6.8396093,22.6502647 C6.95061163,22.6502647 7.03389767,22.5680059 7.03389767,22.4308176 L7.03389767,14.9705647 C8.18316279,11.8053588 12.3813558,0.546317647 12.4270465,0.420358824 C12.4824791,0.266258824 12.4661512,0.104041176 12.2305628,0.104041176" id="Fill-7" fill="#FF0000" mask="url(#mask-2)"></path>
                </g>
            </g>
            <path d="M25.9135742,3.20898438 C25.9135742,3.79459928 25.748374,4.2514632 25.4179688,4.57958984 C25.0875635,4.90771648 24.6477892,5.07177734 24.0986328,5.07177734 C23.5494764,5.07177734 23.1108415,4.90771648 22.7827148,4.57958984 C22.4545882,4.2514632 22.2905273,3.79459928 22.2905273,3.20898438 L22.2905273,1.82128906 C22.2905273,1.23795281 22.4540185,0.780519236 22.7810059,0.448974609 C23.1079932,0.117429983 23.5460585,-0.0483398438 24.0952148,-0.0483398438 C24.6443712,-0.0483398438 25.0847151,0.117429983 25.4162598,0.448974609 C25.7478044,0.780519236 25.9135742,1.23795281 25.9135742,1.82128906 L25.9135742,3.20898438 Z M24.953125,1.81103516 C24.953125,1.44872866 24.8796394,1.17529389 24.732666,0.990722656 C24.5856926,0.806151421 24.373211,0.713867188 24.0952148,0.713867188 C23.81494,0.713867188 23.6041674,0.805581765 23.4628906,0.989013672 C23.3216139,1.17244558 23.2509766,1.44645 23.2509766,1.81103516 L23.2509766,3.20898438 C23.2509766,3.57812685 23.3221835,3.85497955 23.4645996,4.03955078 C23.6070157,4.22412202 23.818358,4.31640625 24.0986328,4.31640625 C24.3789077,4.31640625 24.5913893,4.22412202 24.736084,4.03955078 C24.8807787,3.85497955 24.953125,3.57812685 24.953125,3.20898438 L24.953125,1.81103516 Z M28.9507812,3.00390625 L28.9507812,5 L27.986914,5 L27.986914,0.0268554688 L29.4771484,0.0268554688 C29.971617,0.0268554688 30.3606919,0.155597671 30.6443847,0.413085938 C30.9280776,0.670574204 31.0699219,1.02945733 31.0699219,1.48974609 C31.0699219,1.74723436 31.010108,1.97053942 30.8904785,2.15966797 C30.770849,2.34879652 30.5982433,2.49918564 30.3726562,2.61083984 C30.6324231,2.69742882 30.8192702,2.84098207 30.9332031,3.04150391 C31.047136,3.24202574 31.1041015,3.49267428 31.1041015,3.79345703 L31.1041015,4.15576172 C31.1041015,4.29475981 31.1200519,4.44059168 31.1519531,4.59326172 C31.1838543,4.74593175 31.2408199,4.85758428 31.3228515,4.92822266 L31.3228515,5 L30.3248047,5 C30.2450517,4.92708297 30.1943523,4.80802491 30.1727051,4.64282227 C30.1510578,4.47761962 30.1402344,4.3129891 30.1402344,4.14892578 L30.1402344,3.80029297 C30.1402344,3.54736202 30.087826,3.35140043 29.9830078,3.21240234 C29.8781896,3.07340425 29.7278004,3.00390625 29.5318359,3.00390625 L28.9507812,3.00390625 Z M28.9507812,2.25195312 L29.4703125,2.25195312 C29.6776703,2.25195312 29.8354649,2.18986065 29.9437011,2.06567383 C30.0519374,1.94148701 30.1060547,1.76546338 30.1060547,1.53759766 C30.1060547,1.30517462 30.052507,1.12060615 29.9454101,0.983886719 C29.8383132,0.847167285 29.6822276,0.778808594 29.4771484,0.778808594 L28.9507812,0.778808594 L28.9507812,2.25195312 Z M34.2643554,5 L33.3039062,5 L33.3039062,0.0234375 L34.2643554,0.0234375 L34.2643554,5 Z M39.8206054,4.34375 C39.6793286,4.54199318 39.4748222,4.71288991 39.20708,4.85644531 C38.9393378,5.00000072 38.5935567,5.07177734 38.1697265,5.07177734 C37.6319634,5.07177734 37.200734,4.91512201 36.8760253,4.60180664 C36.5513167,4.28849127 36.3889648,3.84359012 36.3889648,3.26708984 L36.3889648,1.75634766 C36.3889648,1.18212604 36.5467594,0.737794541 36.8623534,0.423339844 C37.1779475,0.108885146 37.5955051,-0.0483398438 38.115039,-0.0483398438 C38.6573594,-0.0483398438 39.0663722,0.0798327026 39.3420898,0.336181641 C39.6178073,0.592530579 39.7511067,0.957679922 39.7419921,1.43164063 L39.7351562,1.45214844 L38.8293945,1.45214844 C38.8293945,1.19238151 38.7724289,1.0032558 38.658496,0.884765625 C38.5445632,0.766275449 38.3725271,0.70703125 38.1423827,0.70703125 C37.8940091,0.70703125 37.7003261,0.793618926 37.5613281,0.966796875 C37.42233,1.13997482 37.352832,1.40087716 37.352832,1.74951172 L37.352832,3.26708984 C37.352832,3.62256037 37.4234693,3.88688064 37.564746,4.06005859 C37.7060228,4.23323654 37.9076809,4.31982422 38.1697265,4.31982422 C38.3565764,4.31982422 38.5035476,4.29760764 38.6106445,4.25317383 C38.7177413,4.20874001 38.7997718,4.15006547 38.8567382,4.07714844 L38.8567382,3.07226562 L38.0979491,3.07226562 L38.0979491,2.40576172 L39.8206054,2.40576172 L39.8206054,4.34375 Z M42.9295897,5 L41.9691405,5 L41.9691405,0.0234375 L42.9295897,0.0234375 L42.9295897,5 Z M48.6806639,5 L47.7167968,5 L46.1376952,1.82470703 L46.1171874,1.828125 L46.1171874,5 L45.1533202,5 L45.1533202,0.0234375 L46.1171874,0.0234375 L47.6962889,3.20214844 L47.7167968,3.19873047 L47.7167968,0.0234375 L48.6806639,0.0234375 L48.6806639,5 Z M53.1158202,3.92333984 L51.8716795,3.92333984 L51.5914061,5 L50.5865233,5 L51.9981444,0.0234375 L52.9961913,0.0234375 L54.4078124,5 L53.3995116,5 L53.1158202,3.92333984 Z M52.0699217,3.16455078 L52.917578,3.16455078 L52.5040038,1.58544922 L52.483496,1.58544922 L52.0699217,3.16455078 Z M58.7609373,0.778808594 L57.591992,0.778808594 L57.591992,5 L56.6247069,5 L56.6247069,0.778808594 L55.4865233,0.778808594 L55.4865233,0.0234375 L58.7609373,0.0234375 L58.7609373,0.778808594 Z M63.1174803,2.80224609 L61.5964842,2.80224609 L61.5964842,4.24804688 L63.4182615,4.24804688 L63.4182615,5 L60.632617,5 L60.632617,0.0234375 L63.4114256,0.0234375 L63.4114256,0.778808594 L61.5964842,0.778808594 L61.5964842,2.05029297 L63.1174803,2.05029297 L63.1174803,2.80224609 Z M65.4300779,5 L65.4300779,0.0234375 L66.9647459,0.0234375 C67.4842797,0.0234375 67.9138002,0.217690115 68.2533201,0.606201172 C68.59284,0.994712229 68.7625974,1.49316102 68.7625974,2.1015625 L68.7625974,2.92529297 C68.7625974,3.53597311 68.59284,4.0344219 68.2533201,4.4206543 C67.9138002,4.8068867 67.4842797,5 66.9647459,5 L65.4300779,5 Z M66.3939451,0.778808594 L66.3939451,4.24804688 L66.9647459,4.24804688 C67.2131195,4.24804688 67.4136383,4.12500123 67.5663084,3.87890625 C67.7189784,3.63281127 67.7953123,3.31494335 67.7953123,2.92529297 L67.7953123,2.09472656 C67.7953123,1.70963349 67.7189784,1.3940442 67.5663084,1.14794922 C67.4136383,0.901854238 67.2131195,0.778808594 66.9647459,0.778808594 L66.3939451,0.778808594 Z M73.7876951,5 L73.7876951,0.0234375 L75.212988,0.0234375 C75.7325219,0.0234375 76.1369775,0.136798997 76.4263669,0.363525391 C76.7157564,0.590251785 76.860449,0.929196963 76.860449,1.38037109 C76.860449,1.61507279 76.807471,1.82413645 76.7015134,2.00756836 C76.5955558,2.19100027 76.4389005,2.32714799 76.2315427,2.41601562 C76.5095389,2.47298206 76.7163239,2.6062815 76.851904,2.81591797 C76.9874841,3.02555443 77.0552732,3.27050641 77.0552732,3.55078125 C77.0552732,4.02702061 76.9168468,4.38761271 76.63999,4.63256836 C76.3631331,4.87752401 75.9683617,5 75.4556638,5 L73.7876951,5 Z M74.7515622,2.79541016 L74.7515622,4.24804688 L75.4556638,4.24804688 C75.6653003,4.24804688 75.8236646,4.18937233 75.9307615,4.07202148 C76.0378583,3.95467064 76.091406,3.78092563 76.091406,3.55078125 C76.091406,3.3138009 76.0424156,3.13037174 75.9444333,3.00048828 C75.8464511,2.87060482 75.6937833,2.80224613 75.4864255,2.79541016 L75.4522458,2.79541016 L74.7515622,2.79541016 Z M74.7515622,2.12890625 L75.2574216,2.12890625 C75.4647794,2.12434894 75.6231437,2.06624405 75.7325193,1.95458984 C75.8418948,1.84293564 75.8965818,1.6811534 75.8965818,1.46923828 C75.8965818,1.23225793 75.8396162,1.05794327 75.7256833,0.946289062 C75.6117505,0.834634858 75.4408537,0.778808594 75.212988,0.778808594 L74.7515622,0.778808594 L74.7515622,2.12890625 Z M80.6461911,2.18701172 L80.6666989,2.18701172 L81.5246091,0.0234375 L82.5773435,0.0234375 L81.1247067,3.22607422 L81.1247067,5 L80.1642575,5 L80.1642575,3.16455078 L78.7389646,0.0234375 L79.7916989,0.0234375 L80.6461911,2.18701172 Z" id="ORIGINATED-BY" fill="#191919" opacity="0.7"></path>
        </g>
    </g>
</svg>

<svg width="105" height="40" viewBox="0 0 105 40" xmlns="http://www.w3.org/2000/svg" xmlns:xlink="http://www.w3.org/1999/xlink"><defs><path id="a" d="M.008 23h58.93V.104H.01V23z"/></defs><g fill="none" fill-rule="evenodd"><path d="M47.938 21.78c-1.35 0-2.755.97-2.755.97v-.624c0-.136-.056-.19-.194-.19h-1.723c-.14 0-.222.08-.222.19V35.43c0 .138.056.22.195.22h1.75c.11 0 .193-.082.193-.22V24.044s.812-.508 1.798-.508c.94 0 1.68.46 1.68 1.402V35.43c0 .138.084.22.223.22h1.72c.14 0 .195-.11.195-.22V24.34c0-1.67-1.04-2.56-2.86-2.56M55.198 28.882c0-2.792.828-5.557 2.52-5.557.574 0 1.125.186 1.667.61v9.838c-.424.227-.958.437-1.534.437-1.84 0-2.652-2.152-2.652-5.328zm6.13-13.776h-1.72c-.14 0-.223.082-.223.192v6.712c-.66-.25-1.263-.382-1.75-.382-2.795 0-4.714 2.635-4.714 7.702 0 4.342 1.868 6.67 4.305 6.67 1.027 0 1.874-.58 2.495-1.125l.376.628c.063.11.115.146.242.146h.99c.11 0 .195-.082.195-.22V15.3c0-.137-.056-.192-.195-.192zM67.785 27.555c-.634 0-1.788.155-1.788.155s.015-.454.07-.89c.248-2.31.807-3.48 1.773-3.48.84 0 1.414 1.197 1.552 3.29.027.436.027.925.027.925h-1.635zm.138-5.9c-2.867 0-4.282 3.698-4.282 7.722 0 4.212 2.02 6.573 4.614 6.573 1.14 0 2.275-.443 3.02-.85.114-.063.135-.15.107-.26l-.217-.89c-.027-.11-.082-.163-.22-.163-.06 0-1 .27-1.916.27-2.124 0-3.098-1.86-3.098-4.332v-.6s1.055.143 1.69.143h4.005v-1.142c0-4.214-1.497-6.47-3.702-6.47z" fill="#000"/><g transform="translate(22 13)"><mask id="b" fill="#fff"><use xlink:href="#a"/></mask><path d="M16.243 20.494c-.493.47-1.084.716-1.615.716-.532 0-.942-.242-1.272-.69-.4-.546-.588-1.386-.588-2.316 0-1.472.55-2.983 1.72-2.983.578 0 1.213.187 1.755.612v4.662zm1.533-10.11c-.637-1.237-1.77-1.778-3.07-1.778-.834 0-2.136.315-3.006.7-.17.075-.278.142-.278.274 0 .078.04.168.084.246l.586 1.237c.06.14.157.172.237.172.085 0 .156-.04.234-.09.848-.534 1.47-.828 1.96-.828.652 0 1.094.426 1.366 1.066.254.596.353 1.42.353 2.373v.28c-.534-.33-1.46-.512-1.923-.512-2.487 0-3.828 2.33-3.828 4.822 0 2.685 1.567 4.654 3.45 4.654 1.05 0 2-.607 2.636-1.373 0 0 .34.796.383.892.046.094.093.13.22.13h1.007c.11 0 .194-.082.194-.22v-7.717c0-1.896-.096-3.343-.604-4.33zM58.716 8.933h-1.534c-.172 0-.26.09-.303.203-.098.252-.747 1.936-1.013 2.634-.19.498-.7 1.925-.7 1.925h-.06c0-.005-.375-1.038-.577-1.556-.164-.42-1.02-2.64-1.127-2.914-.058-.147-.122-.293-.342-.293h-1.68c-.184 0-.288.2-.23.324.06.124 2.738 6.135 2.738 6.135s-2.875 6.73-2.96 6.882c-.083.152.023.375.227.375h1.473c.25 0 .35-.13.424-.34.212-.583.527-1.396.973-2.652.295-.833.763-2.294.763-2.294h.05s.513 1.49.704 1.976c.48 1.23 1.096 2.84 1.16 3.01.07.177.164.3.336.3h1.67c.165 0 .24-.187.164-.35-.186-.384-1.772-4.183-2.872-6.68 0 0 2.857-6.217 2.912-6.37.056-.155.04-.317-.196-.317" fill="#000" mask="url(#b)"/><path d="M12.23.104h-1.935c-.17 0-.278.083-.303.203C9.968.427 7.09 9.08 6.882 9.8c-.15.51-.633 2.312-.75 2.745l-1-2.694C4.89 9.11 2.558 2.69 2.49 2.433c-.038-.14-.104-.316-.354-.316H.246c-.184 0-.29.2-.23.323.048.1 3.46 9.05 4.84 12.47v7.52c0 .138.056.22.194.22h1.79c.11 0 .194-.082.194-.22v-7.46C8.184 11.806 12.38.547 12.427.42c.055-.154.04-.316-.196-.316" fill="#F00" mask="url(#b)"/></g><path d="M25.914 3.21c0 .585-.166 1.04-.496 1.37-.33.328-.77.492-1.32.492s-.987-.164-1.315-.492c-.328-.33-.492-.785-.492-1.37V1.82c0-.582.164-1.04.49-1.37.328-.333.766-.498 1.315-.498.55 0 .99.165 1.32.497.333.33.5.788.5 1.37v1.39zm-.96-1.4c0-.36-.074-.635-.22-.82-.148-.184-.36-.276-.64-.276s-.49.092-.63.275c-.142.182-.213.456-.213.82v1.4c0 .368.072.645.215.83.142.184.353.276.634.276.28 0 .49-.092.636-.276.145-.185.217-.462.217-.83v-1.4zm3.997 1.194V5h-.963V.027h1.49c.495 0 .884.13 1.167.386.284.258.426.616.426 1.077 0 .257-.06.48-.18.67-.12.19-.292.34-.517.45.26.087.446.23.56.432.114.2.17.45.17.75v.364c0 .14.017.285.05.437.03.153.088.265.17.335V5h-.998c-.08-.073-.13-.192-.152-.357-.022-.165-.033-.33-.033-.494V3.8c0-.253-.052-.45-.157-.588-.105-.14-.255-.208-.45-.208h-.582zm0-.752h.52c.208 0 .365-.062.474-.186.108-.125.162-.3.162-.528 0-.233-.053-.417-.16-.554-.108-.137-.264-.205-.47-.205h-.525V2.25zM34.265 5h-.96V.023h.96V5zm5.557-.656c-.14.198-.345.37-.613.512-.268.144-.613.216-1.037.216-.538 0-.97-.157-1.294-.47-.325-.314-.487-.758-.487-1.335v-1.51c0-.575.157-1.02.472-1.334.316-.314.734-.47 1.253-.47.542 0 .95.127 1.227.383.276.257.41.622.4 1.096l-.007.02h-.906c0-.26-.058-.45-.172-.567-.113-.12-.285-.178-.516-.178-.248 0-.442.087-.58.26-.14.173-.21.434-.21.783v1.517c0 .356.07.62.213.793.14.173.343.26.605.26.187 0 .334-.022.44-.067.108-.044.19-.103.247-.176V3.072h-.76v-.666h1.724v1.938zM42.93 5h-.96V.023h.96V5zm5.75 0h-.963l-1.58-3.175-.02.003V5h-.964V.023h.964l1.58 3.18.02-.004V.022h.964V5zm4.436-1.077h-1.244L51.592 5h-1.005l1.41-4.977h1L54.406 5H53.4l-.284-1.077zm-1.046-.758h.848l-.414-1.58h-.02l-.414 1.58zM58.76.78h-1.168V5h-.967V.78h-1.138V.022h3.274V.78zM63.118 2.8h-1.52v1.446h1.82V5h-2.784V.023h2.778V.78h-1.814v1.27h1.52v.752zM65.43 5V.023h1.535c.52 0 .95.195 1.288.583.34.39.51.887.51 1.496v.823c0 .61-.17 1.11-.51 1.496-.34.387-.77.58-1.288.58H65.43zm.964-4.22v3.468h.57c.25 0 .45-.123.602-.37.153-.245.23-.563.23-.953v-.83c0-.385-.077-.7-.23-.947-.152-.246-.353-.37-.6-.37h-.572zM73.788 5V.023h1.425c.52 0 .924.114 1.213.34.29.227.434.566.434 1.017 0 .235-.053.444-.158.628-.106.183-.263.32-.47.408.278.057.484.19.62.4.135.21.203.455.203.735 0 .477-.138.838-.415 1.083-.277.245-.672.367-1.184.367h-1.668zm.964-2.205v1.453h.704c.21 0 .368-.06.475-.176.108-.117.16-.29.16-.52 0-.238-.048-.422-.146-.552-.098-.13-.25-.198-.458-.205h-.734zm0-.666h.505c.208-.006.366-.064.476-.175.11-.112.164-.274.164-.486 0-.238-.057-.412-.17-.524-.115-.11-.286-.167-.514-.167h-.46v1.35zm5.894.057h.02l.86-2.164h1.05l-1.45 3.203V5h-.962V3.165L78.74.023h1.052l.854 2.164z" fill="#191919" opacity=".7"/></g></svg>
